X:252
T:John Stenson's #2
R:reel
C:R-141
D:Mark Simos, Ashokan '85, also similar in The Portland Collection
Z:Transcribed to abc by Debbie Knight
M:C|
K:A
"A"ABcA "E"B2cB| "A"ABcA "E"BAFE| "A"ABcA "E"B2ef| "A"e2cA "E"BAFE|
"A"ABcA "E"B2cB| "A"ABcA "E"BAFE| "Bm"d2dc dfed |1 "E"cABc "A"A4 :|2 "E"cdBc "A"ABcd |]
|: \
"A"edcd edcd| edcA "E"BAFE| "A"e2cd edcA| "Bm"B3c "E"BAFE|
"A"edcd edcd| edcA "E"BABc| "Bm"d3c efed|1 "E"cdBc "A"ABcd :|2 "E"cABc "A"A4 |]
%%text 6/24/00
